static/img/device/fingerprint-selection.svg

<svg xmlns="http://www.w3.org/2000/svg" width="242" height="312" fill="none" viewBox="0 0 242 312"><g clip-path="url(#a)"><path fill="#fff" d="M241.51 0H0v312.01h241.51z"/><path fill="#fff" d="M158.17 286.4c-1.98-12.9-1.84-43.97-.71-49.36 1.13-5.38 8.65-18.57 9.5-23.96s8.22-21.98 9.64-26.24c1.41-4.26 5.25-20.28 7.47-25.44 1.66-3.86 8.5-16.83 9.98-19.77 1.47-2.94 6.47-14.2 8.13-17.59s4.86-10.23 5.37-14.54-4.61-6.1-6.74-4.51c-2.52 1.89-6.23 7.51-8.26 11.31-3.79 7.07-8.89 14.11-10.81 17.32s-9.41 16.6-11.2 19.49c-4.11 6.64-8.92 3.39-7.53-5.21.96-6.01 7.6-33.06 8.89-37.65 1.28-4.58 5.22-21.98 6.62-27.25 1.4-5.28 4.04-15.89 3.56-22.16s-6.97-6.14-9.47-3.23c-2.97 3.47-6.41 12.59-8.07 18.6-3.09 11.19-8.04 22.75-9.74 27.9-1.7 5.14-7.59 30.54-9.6 35.04s-6.95.66-7.11-4.94c-.2-7.24.56-33.06.46-38.72-.11-5.66-.52-24.39-.72-30.87-.21-6.49-.82-19.48-3.51-26.45-2.7-6.97-10.03-4.62-11.89-.44-2.2 4.96-3.01 16.53-2.84 23.94.31 13.8-1.4 28.67-1.58 35.11s-.51 33.51-.68 38.76c-.09 2.76-.74 5.22-2.48 5.43-4.84.57-6.17-12.45-6.99-18-1.06-7.16-2.72-17.52-3.49-23.13s-3.14-19.95-4.11-26.37c-.98-6.42-3.11-19.25-6.61-25.85-3.5-6.61-10.51-3.4-11.86.97-1.6 5.19-.58 16.72 0 24.1.58 7.39 1.95 23.52 2.53 29.94.58 6.41 2.53 28.18 2.53 33.43 0 6.47-2.82 13.21-4.27 21.33-.93 5.21-1.55 10.69-2.19 14.89-1.07.08-3.31-.24-6.28-5.82-2.06-3.85-6.67-12.95-7.76-17.56s-12.37-29.23-24.74-25.59c-4.9 1.44-5.44 4.51-3.64 9.46.97 2.67 4.85 15.89 5.45 21.47.61 5.58 3.64 8.98 6.07 13.46 2.43 4.49 5.7 14.55 6.91 20.86s7.28 15.76 9.46 20.49 10.59 19.54 16.27 27.41 9.89 12.35 9.89 16.57 1.05 11.2 3.59 14.69c1.37 1.89.8 8.17 1.17 18.69"/><path stroke="#000" stroke-miterlimit="10" d="M158.17 286.4c-1.98-12.9-1.84-43.97-.71-49.36 1.13-5.38 8.65-18.57 9.5-23.96s8.22-21.98 9.64-26.24c1.41-4.26 5.25-20.28 7.47-25.44 1.66-3.86 8.5-16.83 9.98-19.77 1.47-2.94 6.47-14.2 8.13-17.59s4.86-10.23 5.37-14.54-4.61-6.1-6.74-4.51c-2.52 1.89-6.23 7.51-8.26 11.31-3.79 7.07-8.89 14.11-10.81 17.32s-9.41 16.6-11.2 19.49c-4.11 6.64-8.92 3.39-7.53-5.21.96-6.01 7.6-33.06 8.89-37.65 1.28-4.58 5.22-21.98 6.62-27.25 1.4-5.28 4.04-15.89 3.56-22.16s-6.97-6.14-9.47-3.23c-2.97 3.47-6.41 12.59-8.07 18.6-3.09 11.19-8.04 22.75-9.74 27.9-1.7 5.14-7.59 30.54-9.6 35.04s-6.95.66-7.11-4.94c-.2-7.24.56-33.06.46-38.72-.11-5.66-.52-24.39-.72-30.87-.21-6.49-.82-19.48-3.51-26.45-2.7-6.97-10.03-4.62-11.89-.44-2.2 4.96-3.01 16.53-2.84 23.94.31 13.8-1.4 28.67-1.58 35.11s-.51 33.51-.68 38.76c-.09 2.76-.74 5.22-2.48 5.43-4.84.57-6.17-12.45-6.99-18-1.06-7.16-2.72-17.52-3.49-23.13s-3.14-19.95-4.11-26.37c-.98-6.42-3.11-19.25-6.61-25.85-3.5-6.61-10.51-3.4-11.86.97-1.6 5.19-.58 16.72 0 24.1.58 7.39 1.95 23.52 2.53 29.94.58 6.41 2.53 28.18 2.53 33.43 0 6.47-2.82 13.21-4.27 21.33-.93 5.21-1.55 10.69-2.19 14.89-1.07.08-3.31-.24-6.28-5.82-2.06-3.85-6.67-12.95-7.76-17.56s-12.37-29.23-24.74-25.59c-4.9 1.44-5.44 4.51-3.64 9.46.97 2.67 4.85 15.89 5.45 21.47.61 5.58 3.64 8.98 6.07 13.46 2.43 4.49 5.7 14.55 6.91 20.86s7.28 15.76 9.46 20.49 10.59 19.54 16.27 27.41 9.89 12.35 9.89 16.57 1.05 11.2 3.59 14.69c1.37 1.89.8 8.17 1.17 18.69"/><path stroke="#000" stroke-miterlimit="10" stroke-width=".6" d="M41.59 123.32c3.63-.3 5.78 3.38 6.57 5.97s2.75 8.15 0 8.94c-2.75.78-5.22 2.15-6.64 3.16-.82.58-1.61-2.26-1.61-2.26"/><path stroke="#000" stroke-miterlimit="10" stroke-width=".2" d="M49.16 137.47c-2.26-1.33-7.11.15-7.91 3.63M45.27 156.41c1.71-2 6.28-3.02 8.5-3.82M48.63 157.38c2.87-.86 6.52-2.62 7.6-4.28"/><path stroke="#000" stroke-miterlimit="10" stroke-width=".6" d="M82.48 46.89c-.14 1.69.48 10.12 1.48 12.86 1 2.75 8.47 1.28 9.61-.19 1.31-1.69.75-9.16-.83-13.33"/><path stroke="#000" stroke-miterlimit="10" stroke-width=".2" d="M86.33 76.37c2.45-1.22 6.64-3.16 9.98-2.03M91.6 103.38c2.04.71 7.44-3.37 9.27-2.35M98.32 105.41c-2.34 1.12-7.43 2.24-9.47 1.43"/><path stroke="#000" stroke-miterlimit="10" stroke-width=".6" d="M123.32 36.13c-.35 1.66-.71 10.1-.05 12.94.67 2.85 8.26 2.27 9.57.95 1.5-1.52 1.83-9 .76-13.34"/><path stroke="#000" stroke-miterlimit="10" stroke-width=".2" d="M124.54 65.06c2.57-.92 6.97-2.35 10.15-.85M133.3 97.17c-1.88 1.06-7.91-2.01-9.54-.69M126.23 100.56c2.5.69 7.71.91 9.57-.26M110.86 137.32c.99 3.79 3.91 7.31 6.31 9.2M78.28 179.4c.89-.57 1.51-3.32 2.09-7.12"/><path stroke="#000" stroke-miterlimit="10" stroke-width=".6" d="M173.72 56.55c-.68 1.26-3.01 7.96-3.17 10.41-.15 2.45 6.11 3.82 7.48 3.07 1.58-.86 3.65-6.81 3.83-10.56"/><path stroke="#000" stroke-miterlimit="10" stroke-width=".2" d="M167.73 80.14c2.29-.13 6.18-.21 8.38 1.77M167.03 108.11c-1.77.4-5.89-3.53-7.52-2.85M160.51 109.14c1.85 1.16 6 2.59 7.78 2.1"/><path stroke="#000" stroke-miterlimit="10" stroke-width=".6" d="M201.74 104.43c-.65.75-3.25 4.91-3.72 6.54s4.54 4.54 5.56 4.21c1.19-.37 3.39-4.12 4.01-6.65"/><path stroke="#000" stroke-miterlimit="10" stroke-width=".2" d="M194.11 119.42c1.56.27 5.35 1.92 6.58 3.56M191.03 139.53c-1.25.03-5.08-4.63-6.28-4.43"/><path stroke="#fff" stroke-miterlimit="10" stroke-width="3" d="M193.55 64.3c0 9.58-7.76 17.34-17.34 17.34s-17.34-7.76-17.34-17.34 7.77-17.34 17.34-17.34 17.34 7.76 17.34 17.34ZM163.94 52.04l24.53 24.52M188.47 52.04l-24.53 24.52"/><path stroke="#000" stroke-miterlimit="10" d="M193.55 64.3c0 9.58-7.76 17.34-17.34 17.34s-17.34-7.76-17.34-17.34 7.77-17.34 17.34-17.34 17.34 7.76 17.34 17.34ZM163.94 52.04l24.53 24.52M188.47 52.04l-24.53 24.52"/><path stroke="#fff" stroke-miterlimit="10" stroke-width="3" d="M217.97 117.37c0 9.58-7.77 17.34-17.34 17.34s-17.34-7.76-17.34-17.34 7.76-17.34 17.34-17.34 17.34 7.77 17.34 17.34ZM188.36 105.11l24.53 24.52M212.89 105.11l-24.53 24.52"/><path stroke="#000" stroke-miterlimit="10" d="M217.97 117.37c0 9.58-7.77 17.34-17.34 17.34s-17.34-7.76-17.34-17.34 7.76-17.34 17.34-17.34 17.34 7.77 17.34 17.34ZM188.36 105.11l24.53 24.52M212.89 105.11l-24.53 24.52"/><path stroke="#fff" stroke-miterlimit="10" stroke-width="3" d="M60.46 135.86c0 9.58-7.76 17.34-17.34 17.34s-17.34-7.76-17.34-17.34 7.77-17.34 17.34-17.34 17.34 7.77 17.34 17.34ZM30.85 123.6l24.53 24.52M55.38 123.6l-24.53 24.52"/><path stroke="#000" stroke-miterlimit="10" d="M60.46 135.86c0 9.58-7.76 17.34-17.34 17.34s-17.34-7.76-17.34-17.34 7.77-17.34 17.34-17.34 17.34 7.77 17.34 17.34ZM30.85 123.6l24.53 24.52M55.38 123.6l-24.53 24.52"/><path stroke="#fff" stroke-miterlimit="10" stroke-width="5" d="M103.67 52.04c0 9.58-7.76 17.34-17.34 17.34s-17.34-7.76-17.34-17.34S76.76 34.7 86.33 34.7s17.34 7.76 17.34 17.34Z"/><path stroke="#9a2a42" stroke-dasharray="5 5" stroke-linecap="round" stroke-miterlimit="10" stroke-width="3" d="M103.67 52.04c0 9.58-7.76 17.34-17.34 17.34s-17.34-7.76-17.34-17.34S76.76 34.7 86.33 34.7s17.34 7.76 17.34 17.34Z"/><path stroke="#fff" stroke-miterlimit="10" stroke-width="5" d="M145.93 42.95c0 9.58-7.76 17.34-17.34 17.34s-17.34-7.76-17.34-17.34 7.77-17.34 17.34-17.34 17.34 7.77 17.34 17.34Z"/><path stroke="#9a2a42" stroke-dasharray="5 5" stroke-linecap="round" stroke-miterlimit="10" stroke-width="3" d="M145.93 42.95c0 9.58-7.76 17.34-17.34 17.34s-17.34-7.76-17.34-17.34 7.77-17.34 17.34-17.34 17.34 7.77 17.34 17.34Z"/></g><defs><clipPath id="a"><path fill="#fff" d="M0 0h241.51v312.01H0z"/></clipPath></defs></svg>

<svg width="242" height="312" viewBox="0 0 242 312" fill="none" xmlns="http://www.w3.org/2000/svg">
<g clip-path="url(#clip0_102_164)">
<path d="M241.51 0H0V312.01H241.51V0Z" fill="white"/>
<path d="M158.17 286.4C156.19 273.5 156.33 242.43 157.46 237.04C158.59 231.66 166.11 218.47 166.96 213.08C167.81 207.69 175.18 191.1 176.6 186.84C178.01 182.58 181.85 166.56 184.07 161.4C185.73 157.54 192.57 144.57 194.05 141.63C195.52 138.69 200.52 127.43 202.18 124.04C203.84 120.65 207.04 113.81 207.55 109.5C208.06 105.19 202.94 103.4 200.81 104.99C198.29 106.88 194.58 112.5 192.55 116.3C188.76 123.37 183.66 130.41 181.74 133.62C179.82 136.83 172.33 150.22 170.54 153.11C166.43 159.75 161.62 156.5 163.01 147.9C163.97 141.89 170.61 114.84 171.9 110.25C173.18 105.67 177.12 88.27 178.52 83C179.92 77.72 182.56 67.11 182.08 60.84C181.6 54.57 175.11 54.7 172.61 57.61C169.64 61.08 166.2 70.2 164.54 76.21C161.45 87.4 156.5 98.96 154.8 104.11C153.1 109.25 147.21 134.65 145.2 139.15C143.19 143.65 138.25 139.81 138.09 134.21C137.89 126.97 138.65 101.15 138.55 95.49C138.44 89.83 138.03 71.1 137.83 64.62C137.62 58.13 137.01 45.14 134.32 38.17C131.62 31.2 124.29 33.55 122.43 37.73C120.23 42.69 119.42 54.26 119.59 61.67C119.9 75.47 118.19 90.34 118.01 96.78C117.83 103.22 117.5 130.29 117.33 135.54C117.24 138.3 116.59 140.76 114.85 140.97C110.01 141.54 108.68 128.52 107.86 122.97C106.8 115.81 105.14 105.45 104.37 99.84C103.6 94.23 101.23 79.89 100.26 73.47C99.28 67.05 97.15 54.22 93.65 47.62C90.15 41.01 83.14 44.22 81.79 48.59C80.19 53.78 81.21 65.31 81.79 72.69C82.37 80.08 83.74 96.21 84.32 102.63C84.9 109.04 86.85 130.81 86.85 136.06C86.85 142.53 84.03 149.27 82.58 157.39C81.65 162.6 81.03 168.08 80.39 172.28C79.32 172.36 77.08 172.04 74.11 166.46C72.05 162.61 67.44 153.51 66.35 148.9C65.26 144.29 53.98 119.67 41.61 123.31C36.71 124.75 36.17 127.82 37.97 132.77C38.94 135.44 42.82 148.66 43.42 154.24C44.03 159.82 47.06 163.22 49.49 167.7C51.92 172.19 55.19 182.25 56.4 188.56C57.61 194.87 63.68 204.32 65.86 209.05C68.04 213.78 76.45 228.59 82.13 236.46C87.81 244.33 92.02 248.81 92.02 253.03C92.02 257.25 93.07 264.23 95.61 267.72C96.98 269.61 96.41 275.89 96.78 286.41" fill="white"/>
<path d="M158.17 286.4C156.19 273.5 156.33 242.43 157.46 237.04C158.59 231.66 166.11 218.47 166.96 213.08C167.81 207.69 175.18 191.1 176.6 186.84C178.01 182.58 181.85 166.56 184.07 161.4C185.73 157.54 192.57 144.57 194.05 141.63C195.52 138.69 200.52 127.43 202.18 124.04C203.84 120.65 207.04 113.81 207.55 109.5C208.06 105.19 202.94 103.4 200.81 104.99C198.29 106.88 194.58 112.5 192.55 116.3C188.76 123.37 183.66 130.41 181.74 133.62C179.82 136.83 172.33 150.22 170.54 153.11C166.43 159.75 161.62 156.5 163.01 147.9C163.97 141.89 170.61 114.84 171.9 110.25C173.18 105.67 177.12 88.27 178.52 83C179.92 77.72 182.56 67.11 182.08 60.84C181.6 54.57 175.11 54.7 172.61 57.61C169.64 61.08 166.2 70.2 164.54 76.21C161.45 87.4 156.5 98.96 154.8 104.11C153.1 109.25 147.21 134.65 145.2 139.15C143.19 143.65 138.25 139.81 138.09 134.21C137.89 126.97 138.65 101.15 138.55 95.49C138.44 89.83 138.03 71.1 137.83 64.62C137.62 58.13 137.01 45.14 134.32 38.17C131.62 31.2 124.29 33.55 122.43 37.73C120.23 42.69 119.42 54.26 119.59 61.67C119.9 75.47 118.19 90.34 118.01 96.78C117.83 103.22 117.5 130.29 117.33 135.54C117.24 138.3 116.59 140.76 114.85 140.97C110.01 141.54 108.68 128.52 107.86 122.97C106.8 115.81 105.14 105.45 104.37 99.84C103.6 94.23 101.23 79.89 100.26 73.47C99.28 67.05 97.15 54.22 93.65 47.62C90.15 41.01 83.14 44.22 81.79 48.59C80.19 53.78 81.21 65.31 81.79 72.69C82.37 80.08 83.74 96.21 84.32 102.63C84.9 109.04 86.85 130.81 86.85 136.06C86.85 142.53 84.03 149.27 82.58 157.39C81.65 162.6 81.03 168.08 80.39 172.28C79.32 172.36 77.08 172.04 74.11 166.46C72.05 162.61 67.44 153.51 66.35 148.9C65.26 144.29 53.98 119.67 41.61 123.31C36.71 124.75 36.17 127.82 37.97 132.77C38.94 135.44 42.82 148.66 43.42 154.24C44.03 159.82 47.06 163.22 49.49 167.7C51.92 172.19 55.19 182.25 56.4 188.56C57.61 194.87 63.68 204.32 65.86 209.05C68.04 213.78 76.45 228.59 82.13 236.46C87.81 244.33 92.02 248.81 92.02 253.03C92.02 257.25 93.07 264.23 95.61 267.72C96.98 269.61 96.41 275.89 96.78 286.41" stroke="black" stroke-miterlimit="10"/>
<path d="M41.59 123.32C45.22 123.02 47.37 126.7 48.16 129.29C48.95 131.88 50.91 137.44 48.16 138.23C45.41 139.01 42.94 140.38 41.52 141.39C40.7 141.97 39.91 139.13 39.91 139.13" stroke="black" stroke-width="0.6" stroke-miterlimit="10"/>
<path d="M49.16 137.47C46.9 136.14 42.05 137.62 41.25 141.1" stroke="black" stroke-width="0.2" stroke-miterlimit="10"/>
<path d="M45.27 156.41C46.98 154.41 51.55 153.39 53.77 152.59" stroke="black" stroke-width="0.2" stroke-miterlimit="10"/>
<path d="M48.63 157.38C51.5 156.52 55.15 154.76 56.23 153.1" stroke="black" stroke-width="0.2" stroke-miterlimit="10"/>
<path d="M82.48 46.89C82.34 48.58 82.96 57.01 83.96 59.75C84.96 62.5 92.43 61.03 93.57 59.56C94.88 57.87 94.32 50.4 92.74 46.23" stroke="black" stroke-width="0.6" stroke-miterlimit="10"/>
<path d="M86.3301 76.37C88.7801 75.15 92.9701 73.21 96.3101 74.34" stroke="black" stroke-width="0.2" stroke-miterlimit="10"/>
<path d="M91.6 103.38C93.64 104.09 99.04 100.01 100.87 101.03" stroke="black" stroke-width="0.2" stroke-miterlimit="10"/>
<path d="M98.32 105.41C95.98 106.53 90.89 107.65 88.85 106.84" stroke="black" stroke-width="0.2" stroke-miterlimit="10"/>
<path d="M123.32 36.13C122.97 37.79 122.61 46.23 123.27 49.07C123.94 51.92 131.53 51.34 132.84 50.02C134.34 48.5 134.67 41.02 133.6 36.68" stroke="black" stroke-width="0.6" stroke-miterlimit="10"/>
<path d="M124.54 65.06C127.11 64.14 131.51 62.71 134.69 64.21" stroke="black" stroke-width="0.2" stroke-miterlimit="10"/>
<path d="M133.3 97.17C131.42 98.23 125.39 95.16 123.76 96.48" stroke="black" stroke-width="0.2" stroke-miterlimit="10"/>
<path d="M126.23 100.56C128.73 101.25 133.94 101.47 135.8 100.3" stroke="black" stroke-width="0.2" stroke-miterlimit="10"/>
<path d="M110.86 137.32C111.85 141.11 114.77 144.63 117.17 146.52" stroke="black" stroke-width="0.2" stroke-miterlimit="10"/>
<path d="M78.28 179.4C79.17 178.83 79.79 176.08 80.37 172.28" stroke="black" stroke-width="0.2" stroke-miterlimit="10"/>
<path d="M173.72 56.55C173.04 57.81 170.71 64.51 170.55 66.96C170.4 69.41 176.66 70.78 178.03 70.03C179.61 69.17 181.68 63.22 181.86 59.47" stroke="black" stroke-width="0.6" stroke-miterlimit="10"/>
<path d="M167.73 80.14C170.02 80.01 173.91 79.93 176.11 81.91" stroke="black" stroke-width="0.2" stroke-miterlimit="10"/>
<path d="M167.03 108.11C165.26 108.51 161.14 104.58 159.51 105.26" stroke="black" stroke-width="0.2" stroke-miterlimit="10"/>
<path d="M160.51 109.14C162.36 110.3 166.51 111.73 168.29 111.24" stroke="black" stroke-width="0.2" stroke-miterlimit="10"/>
<path d="M201.74 104.43C201.09 105.18 198.49 109.34 198.02 110.97C197.55 112.6 202.56 115.51 203.58 115.18C204.77 114.81 206.97 111.06 207.59 108.53" stroke="black" stroke-width="0.6" stroke-miterlimit="10"/>
<path d="M194.11 119.42C195.67 119.69 199.46 121.34 200.69 122.98" stroke="black" stroke-width="0.2" stroke-miterlimit="10"/>
<path d="M191.03 139.53C189.78 139.56 185.95 134.9 184.75 135.1" stroke="black" stroke-width="0.2" stroke-miterlimit="10"/>
<path d="M193.55 64.3C193.55 73.88 185.79 81.64 176.21 81.64C166.63 81.64 158.87 73.88 158.87 64.3C158.87 54.72 166.64 46.96 176.21 46.96C185.78 46.96 193.55 54.72 193.55 64.3Z" stroke="white" stroke-width="3" stroke-miterlimit="10"/>
<path d="M163.94 52.04L188.47 76.56" stroke="white" stroke-width="3" stroke-miterlimit="10"/>
<path d="M188.47 52.04L163.94 76.56" stroke="white" stroke-width="3" stroke-miterlimit="10"/>
<path d="M193.55 64.3C193.55 73.88 185.79 81.64 176.21 81.64C166.63 81.64 158.87 73.88 158.87 64.3C158.87 54.72 166.64 46.96 176.21 46.96C185.78 46.96 193.55 54.72 193.55 64.3Z" stroke="black" stroke-miterlimit="10"/>
<path d="M163.94 52.04L188.47 76.56" stroke="black" stroke-miterlimit="10"/>
<path d="M188.47 52.04L163.94 76.56" stroke="black" stroke-miterlimit="10"/>
<path d="M217.97 117.37C217.97 126.95 210.2 134.71 200.63 134.71C191.06 134.71 183.29 126.95 183.29 117.37C183.29 107.79 191.05 100.03 200.63 100.03C210.21 100.03 217.97 107.8 217.97 117.37Z" stroke="white" stroke-width="3" stroke-miterlimit="10"/>
<path d="M188.36 105.11L212.89 129.63" stroke="white" stroke-width="3" stroke-miterlimit="10"/>
<path d="M212.89 105.11L188.36 129.63" stroke="white" stroke-width="3" stroke-miterlimit="10"/>
<path d="M217.97 117.37C217.97 126.95 210.2 134.71 200.63 134.71C191.06 134.71 183.29 126.95 183.29 117.37C183.29 107.79 191.05 100.03 200.63 100.03C210.21 100.03 217.97 107.8 217.97 117.37Z" stroke="black" stroke-miterlimit="10"/>
<path d="M188.36 105.11L212.89 129.63" stroke="black" stroke-miterlimit="10"/>
<path d="M212.89 105.11L188.36 129.63" stroke="black" stroke-miterlimit="10"/>
<path d="M60.46 135.86C60.46 145.44 52.7 153.2 43.12 153.2C33.54 153.2 25.78 145.44 25.78 135.86C25.78 126.28 33.55 118.52 43.12 118.52C52.69 118.52 60.46 126.29 60.46 135.86Z" stroke="white" stroke-width="3" stroke-miterlimit="10"/>
<path d="M30.85 123.6L55.38 148.12" stroke="white" stroke-width="3" stroke-miterlimit="10"/>
<path d="M55.38 123.6L30.85 148.12" stroke="white" stroke-width="3" stroke-miterlimit="10"/>
<path d="M60.46 135.86C60.46 145.44 52.7 153.2 43.12 153.2C33.54 153.2 25.78 145.44 25.78 135.86C25.78 126.28 33.55 118.52 43.12 118.52C52.69 118.52 60.46 126.29 60.46 135.86Z" stroke="black" stroke-miterlimit="10"/>
<path d="M30.85 123.6L55.38 148.12" stroke="black" stroke-miterlimit="10"/>
<path d="M55.38 123.6L30.85 148.12" stroke="black" stroke-miterlimit="10"/>
<path d="M103.67 52.04C103.67 61.62 95.91 69.38 86.33 69.38C76.75 69.38 68.99 61.62 68.99 52.04C68.99 42.46 76.76 34.7 86.33 34.7C95.9 34.7 103.67 42.46 103.67 52.04Z" stroke="white" stroke-width="5" stroke-miterlimit="10"/>
<path d="M103.67 52.04C103.67 61.62 95.91 69.38 86.33 69.38C76.75 69.38 68.99 61.62 68.99 52.04C68.99 42.46 76.76 34.7 86.33 34.7C95.9 34.7 103.67 42.46 103.67 52.04Z" stroke="#9A2A42" stroke-width="3" stroke-miterlimit="10" stroke-linecap="round" stroke-dasharray="5 5"/>
<path d="M145.93 42.95C145.93 52.53 138.17 60.29 128.59 60.29C119.01 60.29 111.25 52.53 111.25 42.95C111.25 33.37 119.02 25.61 128.59 25.61C138.16 25.61 145.93 33.38 145.93 42.95Z" stroke="white" stroke-width="5" stroke-miterlimit="10"/>
<path d="M145.93 42.95C145.93 52.53 138.17 60.29 128.59 60.29C119.01 60.29 111.25 52.53 111.25 42.95C111.25 33.37 119.02 25.61 128.59 25.61C138.16 25.61 145.93 33.38 145.93 42.95Z" stroke="#9A2A42" stroke-width="3" stroke-miterlimit="10" stroke-linecap="round" stroke-dasharray="5 5"/>
</g>
<defs>
<clipPath id="clip0_102_164">
<rect width="241.51" height="312.01" fill="white"/>
</clipPath>
</defs>
</svg>
